X: 34999
T: Rogue's, The
R: reel
M: 4/4
K: Bminor
dc|BF F/F/F AEEF|EDFD B,A,A,D|{A}B2 AB dA (3Bcd|efed BAFA|
BF F/F/F AEEF|EDFD B,2 A,B,|D2 DE FE (3FGA|B2 BA B2:|
de|fgfe f2 ed|BcBA B2 AF|D2 DE FE (3FGA|B2 BA B2
de|fgfe f2 ed|BcBA Bcdc|B2 AF EDFA|B2 BA B2:|

